Origami/32x32/apps/com.github.spheras.desktopfolder.svg

<svg width="32" height="32" version="1" xmlns="http://www.w3.org/2000/svg">
 <rect transform="matrix(0,-1,-1,0,0,0)" x="-28" y="-24" width="21" height="16" rx="1.313" ry="1.333" fill="#8e8e8e"/>
 <rect transform="matrix(0,-1,-1,0,0,0)" x="-25" y="-29" width="20" height="26" rx="1.25" ry="1.3" style="fill:#3f3f3f"/>
 <rect transform="matrix(0,-1,-1,0,0,0)" x="-24" y="-27" width="16" height="22" rx="0" ry="0" style="opacity:.2"/>
 <path d="m4.3008 5c-0.7202 0-1.3008 0.5575-1.3008 1.25v1c0-0.6925 0.5806-1.25 1.3008-1.25h23.398c0.72 0 1.301 0.5575 1.301 1.25v-1c0-0.6925-0.581-1.25-1.301-1.25h-23.398z" fill="#fff" style="opacity:.1"/>
 <path d="m8 26.688v1c0 0.727 0.5953 1.312 1.334 1.312h13.332c0.739 0 1.334-0.585 1.334-1.312v-1c0 0.727-0.595 1.312-1.334 1.312h-13.332c-0.7387 0-1.334-0.585-1.334-1.312z" opacity=".2"/>
 <path d="m3 23.75v1c0 0.692 0.5806 1.25 1.3008 1.25h23.398c0.72 0 1.301-0.558 1.301-1.25v-1c0 0.692-0.581 1.25-1.301 1.25h-23.398c-0.7204 0-1.301-0.558-1.301-1.25z" opacity=".2"/>
 <rect transform="matrix(0,-1,-1,0,0,0)" x="-23" y="-27" width="16" height="22" rx="0" ry="0" style="fill:#2584d4"/>
 <rect x="7" y="10" width="8" height="12" rx="1.333" ry="1.2" style="opacity:.2"/>
 <rect x="7" y="9" width="8" height="12" rx="1.333" ry="1.2" style="fill:#5ebae6"/>
 <rect x="17" y="10" width="8" height="5" rx="1.333" ry="1.25" style="opacity:.2"/>
 <rect x="17" y="9" width="8" height="5" rx="1.333" ry="1.25" style="fill:#5ebae6"/>
 <rect x="17" y="17" width="8" height="5" rx="1.333" ry="1.25" style="opacity:.2"/>
 <rect x="17" y="16" width="8" height="5" rx="1.333" ry="1.25" style="fill:#5ebae6"/>
 <path d="M 8.3339844 9 C 7.5953177 9 7 9.5344187 7 10.199219 L 7 11.199219 C 7 10.534419 7.5953177 10 8.3339844 10 L 13.666016 10 C 14.404682 10 15 10.534419 15 11.199219 L 15 10.199219 C 15 9.5344187 14.404682 9 13.666016 9 L 8.3339844 9 z" style="fill:#ffffff;opacity:.1"/>
 <path d="m18.333984 9c-0.738666 0-1.333984 0.5575-1.333984 1.25v1c0-0.6925 0.595318-1.25 1.333984-1.25h5.332032c0.738666 0 1.333984 0.5575 1.333984 1.25v-1c0-0.6925-0.595318-1.25-1.333984-1.25h-5.332032z" style="fill:#ffffff;opacity:.1"/>
 <path d="m18.333984 16c-0.738666 0-1.333984 0.5575-1.333984 1.25v1c0-0.6925 0.595318-1.25 1.333984-1.25h5.332032c0.738666 0 1.333984 0.5575 1.333984 1.25v-1c0-0.6925-0.595318-1.25-1.333984-1.25h-5.332032z" style="fill:#ffffff;opacity:.1"/>
</svg>

<svg xmlns="http://www.w3.org/2000/svg" width="32" height="32" version="1">
 <rect fill="#8e8e8e" width="21" height="16" x="-28" y="-24" rx="1.313" ry="1.333" transform="matrix(0,-1,-1,0,0,0)"/>
 <rect style="fill:#3f3f3f" width="20" height="26" x="-25" y="-29" rx="1.25" ry="1.3" transform="matrix(0,-1,-1,0,0,0)"/>
 <rect style="opacity:0.2" width="16" height="22" x="-24" y="-27" rx="0" ry="0" transform="matrix(0,-1,-1,0,0,0)"/>
 <path fill="#fff" style="opacity:0.1" d="m4.3008 5c-0.7202 0-1.3008 0.5575-1.3008 1.25v1c0-0.6925 0.5806-1.25 1.3008-1.25h23.398c0.72 0 1.301 0.5575 1.301 1.25v-1c0-0.6925-0.581-1.25-1.301-1.25h-23.398z"/>
 <path opacity=".2" d="m8 26.688v1c0 0.727 0.5953 1.312 1.334 1.312h13.332c0.739 0 1.334-0.585 1.334-1.312v-1c0 0.727-0.595 1.312-1.334 1.312h-13.332c-0.7387 0-1.334-0.585-1.334-1.312z"/>
 <path opacity=".2" d="m3 23.75v1c0 0.692 0.5806 1.25 1.3008 1.25h23.398c0.72 0 1.301-0.558 1.301-1.25v-1c0 0.692-0.581 1.25-1.301 1.25h-23.398c-0.7204 0-1.301-0.558-1.301-1.25z"/>
 <rect style="fill:#2584d4" width="16" height="22" x="-23" y="-27" rx="0" ry="0" transform="matrix(0,-1,-1,0,0,0)"/>
 <rect style="opacity:0.2" width="8" height="12" x="7" y="10" rx="1.333" ry="1.2"/>
 <rect style="fill:#5ebae6" width="8" height="12" x="7" y="9" rx="1.333" ry="1.2"/>
 <rect style="opacity:0.2" width="8" height="5" x="17" y="10" rx="1.333" ry="1.25"/>
 <rect style="fill:#5ebae6" width="8" height="5" x="17" y="9" rx="1.333" ry="1.25"/>
 <rect style="opacity:0.2" width="8" height="5" x="17" y="17" rx="1.333" ry="1.25"/>
 <rect style="fill:#5ebae6" width="8" height="5" x="17" y="16" rx="1.333" ry="1.25"/>
 <path style="opacity:0.1;fill:#ffffff" d="M 8.3339844 9 C 7.5953177 9 7 9.5344187 7 10.199219 L 7 11.199219 C 7 10.534419 7.5953177 10 8.3339844 10 L 13.666016 10 C 14.404682 10 15 10.534419 15 11.199219 L 15 10.199219 C 15 9.5344187 14.404682 9 13.666016 9 L 8.3339844 9 z"/>
 <path style="opacity:0.1;fill:#ffffff" d="M 18.333984 9 C 17.595318 9 17 9.5575 17 10.25 L 17 11.25 C 17 10.5575 17.595318 10 18.333984 10 L 23.666016 10 C 24.404682 10 25 10.5575 25 11.25 L 25 10.25 C 25 9.5575 24.404682 9 23.666016 9 L 18.333984 9 z"/>
 <path style="opacity:0.1;fill:#ffffff" d="M 18.333984 16 C 17.595318 16 17 16.5575 17 17.25 L 17 18.25 C 17 17.5575 17.595318 17 18.333984 17 L 23.666016 17 C 24.404682 17 25 17.5575 25 18.25 L 25 17.25 C 25 16.5575 24.404682 16 23.666016 16 L 18.333984 16 z"/>
</svg>
